src/pentobi/icons/pentobi-rotate-right.svg

<?xml version="1.0" encoding="UTF-8" standalone="no"?>
<!-- Created with Inkscape (http://www.inkscape.org/) -->

<svg
   xmlns:dc="http://purl.org/dc/elements/1.1/"
   xmlns:cc="http://creativecommons.org/ns#"
   xmlns:rdf="http://www.w3.org/1999/02/22-rdf-syntax-ns#"
   xmlns:svg="http://www.w3.org/2000/svg"
   xmlns="http://www.w3.org/2000/svg"
   xmlns:xlink="http://www.w3.org/1999/xlink"
   version="1.1"
   width="16"
   height="16"
   id="svg2985">
  <defs
     id="defs2987">
    <linearGradient
       id="linearGradient3790">
      <stop
         id="stop3792"
         style="stop-color:#a0a39d;stop-opacity:1"
         offset="0" />
      <stop
         id="stop3794"
         style="stop-color:#c8cac6;stop-opacity:1"
         offset="1" />
    </linearGradient>
    <linearGradient
       x1="7.0119681"
       y1="0.05048006"
       x2="10.999503"
       y2="14.932162"
       id="linearGradient3796"
       xlink:href="#linearGradient3790"
       gradientUnits="userSpaceOnUse" />
  </defs>
  <metadata
     id="metadata2990">
    <rdf:RDF>
      <cc:Work
         rdf:about="">
        <dc:format>image/svg+xml</dc:format>
        <dc:type
           rdf:resource="http://purl.org/dc/dcmitype/StillImage" />
        <dc:title></dc:title>
      </cc:Work>
    </rdf:RDF>
  </metadata>
  <g
     id="layer1">
    <path
       d="m 7.5,0.46875 c -3.8659932,-1.8e-7 -6.99999982,3.1340068 -7,7 l 3,0 c 0,-2.2091391 1.7908609,-4 4,-4 2.2091391,0 4,1.7908609 4,4 0,1.1415025 -0.48216,2.1531467 -1.25,2.875 l -1.875,-1.875 0,6 6,0 -2,-2 c 1.337834,-1.30133 2.125,-3.085881 2.125,-5 0,-3.8659932 -3.134007,-6.99999982 -7,-7 z"
       id="rect2995"
       style="fill:url(#linearGradient3796);fill-opacity:1;fill-rule:evenodd;stroke:#555753;stroke-width:0.99964303;stroke-linecap:round;stroke-linejoin:round;stroke-miterlimit:4;stroke-opacity:1" />
  </g>
</svg>

<?xml version="1.0" encoding="UTF-8" standalone="no"?>
<!-- Created with Inkscape (http://www.inkscape.org/) -->

<svg
   xmlns:dc="http://purl.org/dc/elements/1.1/"
   xmlns:cc="http://creativecommons.org/ns#"
   xmlns:rdf="http://www.w3.org/1999/02/22-rdf-syntax-ns#"
   xmlns:svg="http://www.w3.org/2000/svg"
   xmlns="http://www.w3.org/2000/svg"
   xmlns:xlink="http://www.w3.org/1999/xlink"
   xmlns:sodipodi="http://sodipodi.sourceforge.net/DTD/sodipodi-0.dtd"
   xmlns:inkscape="http://www.inkscape.org/namespaces/inkscape"
   width="16px"
   height="16px"
   id="svg2985"
   version="1.1"
   inkscape:version="0.48.3.1 r9886"
   sodipodi:docname="pentobi-rotate-right.svg"
   inkscape:export-filename="/home/markus/scratch/pentobi/src/pentobi/icons/pentobi-rotate-right.png"
   inkscape:export-xdpi="90"
   inkscape:export-ydpi="90">
  <defs
     id="defs2987">
    <linearGradient
       id="linearGradient3790">
      <stop
         style="stop-color:#a0a39d;stop-opacity:1;"
         offset="0"
         id="stop3792" />
      <stop
         style="stop-color:#c8cac6;stop-opacity:1;"
         offset="1"
         id="stop3794" />
    </linearGradient>
    <linearGradient
       id="linearGradient3782">
      <stop
         style="stop-color:#b4b4b4;stop-opacity:1;"
         offset="0"
         id="stop3784" />
      <stop
         style="stop-color:#282828;stop-opacity:1;"
         offset="1"
         id="stop3786" />
    </linearGradient>
    <linearGradient
       inkscape:collect="always"
       xlink:href="#linearGradient3790"
       id="linearGradient3796"
       x1="7.0119681"
       y1="0.05048006"
       x2="10.999503"
       y2="14.932162"
       gradientUnits="userSpaceOnUse" />
  </defs>
  <sodipodi:namedview
     id="base"
     pagecolor="#ffffff"
     bordercolor="#666666"
     borderopacity="1.0"
     inkscape:pageopacity="0.0"
     inkscape:pageshadow="2"
     inkscape:zoom="20.875"
     inkscape:cx="6.3365761"
     inkscape:cy="8.839737"
     inkscape:current-layer="layer1"
     showgrid="true"
     inkscape:grid-bbox="true"
     inkscape:document-units="px"
     showguides="true"
     inkscape:snap-global="false"
     inkscape:window-width="970"
     inkscape:window-height="847"
     inkscape:window-x="582"
     inkscape:window-y="95"
     inkscape:window-maximized="0">
    <inkscape:grid
       type="xygrid"
       id="grid2993" />
  </sodipodi:namedview>
  <metadata
     id="metadata2990">
    <rdf:RDF>
      <cc:Work
         rdf:about="">
        <dc:format>image/svg+xml</dc:format>
        <dc:type
           rdf:resource="http://purl.org/dc/dcmitype/StillImage" />
        <dc:title />
      </cc:Work>
    </rdf:RDF>
  </metadata>
  <g
     id="layer1"
     inkscape:label="Layer 1"
     inkscape:groupmode="layer">
    <path
       style="opacity:1;fill:url(#linearGradient3796);fill-opacity:1;fill-rule:evenodd;stroke:#555753;stroke-width:0.99964303000000021;stroke-linecap:round;stroke-linejoin:round;stroke-miterlimit:4;stroke-opacity:1"
       d="M 7.5 0.46875 C 3.6340068 0.46874982 0.50000018 3.6027568 0.5 7.46875 L 3.5 7.46875 C 3.5 5.2596109 5.2908609 3.46875 7.5 3.46875 C 9.7091391 3.46875 11.5 5.2596109 11.5 7.46875 C 11.5 8.6102525 11.01784 9.6218967 10.25 10.34375 L 8.375 8.46875 L 8.375 14.46875 L 14.375 14.46875 L 12.375 12.46875 C 13.712834 11.16742 14.5 9.382869 14.5 7.46875 C 14.5 3.6027568 11.365993 0.46875018 7.5 0.46875 z "
       id="rect2995" />
  </g>
</svg>
